lib/flags/hk-hong-kong.svg

<svg xmlns="http://www.w3.org/2000/svg" fill="none" aria-hidden="true" viewBox="0 0 42 30"><g id="Country=HK - Hong Kong, Size=sm (36x24)" filter="url(#filter0_dd_91_27765)"><g clip-path="url(#clip0_91_27765)"><g id="flag"><mask id="mask0_91_27765" width="36" height="24" x="3" y="2" maskUnits="userSpaceOnUse" style="mask-type:alpha"><rect id="mask" width="36" height="24" x="3" y="2" fill="white"/></mask><g mask="url(#mask0_91_27765)"><g id="contents"><path id="background" fill="#EA1A1A" fill-rule="evenodd" d="M3 2V26H39V2H3Z" clip-rule="evenodd"/><mask id="mask1_91_27765" width="36" height="24" x="3" y="2" maskUnits="userSpaceOnUse" style="mask-type:alpha"><path id="background_2" fill="white" fill-rule="evenodd" d="M3 2V26H39V2H3Z" clip-rule="evenodd"/></mask><g mask="url(#mask1_91_27765)"><path id="Combined shape 1061" fill="white" fill-rule="evenodd" d="M20.8533 13.575C20.8533 13.575 14.3399 8.4117 22.1124 5.40333C22.1124 5.40333 24.3727 7.61994 22.677 10.1084C22.1207 10.9246 21.6515 11.5074 21.2989 11.9454C20.5765 12.8427 20.3435 13.1321 20.8533 13.575ZM11.2405 9.86771C10.7931 17.3926 18.9009 14.5223 18.9009 14.5223C18.2276 14.7296 18.0406 14.4149 17.4607 13.4397L17.4607 13.4397C17.1776 12.9635 16.8008 12.3298 16.228 11.5225C14.4821 9.06155 11.2405 9.86771 11.2405 9.86771ZM23.518 13.8273C23.518 13.8273 31.8789 16.0522 26.2719 21.7038C26.2719 21.7038 23.1677 20.5466 23.518 17.6542C23.633 16.7058 23.7802 16.0013 23.8909 15.4719C24.1176 14.3867 24.1908 14.0365 23.518 13.8273ZM21.3204 15.5619C21.3204 15.5619 22.8193 23.2042 14.6255 21.2729C14.6255 21.2729 14.4024 18.2875 17.4697 17.273C18.4759 16.9402 19.2507 16.7422 19.833 16.5934L19.833 16.5934C21.026 16.2887 21.4107 16.1904 21.3204 15.5619ZM31.6636 12.2755C26.5387 6.27333 22.4332 13.1187 22.4332 13.1187C22.7968 12.5738 23.1682 12.7067 24.3192 13.1184C24.8814 13.3195 25.6296 13.5872 26.6537 13.8749C29.7744 14.7516 31.6636 12.2755 31.6636 12.2755Z" clip-rule="evenodd"/><path id="Path 76" fill="#EA1A1A" d="M14.1938 12.3424L14.6686 12.0742C15.7107 13.5321 17.0633 14.2495 18.7511 14.2495V14.7495C16.8628 14.7495 15.3354 13.9394 14.1938 12.3424Z"/><path id="Oval" fill="#EA1A1A" fill-rule="evenodd" d="M27.4688 12.75C27.9347 12.75 28.3125 12.4142 28.3125 12C28.3125 11.5858 27.9347 11.25 27.4688 11.25C27.0028 11.25 26.625 11.5858 26.625 12C26.625 12.4142 27.0028 12.75 27.4688 12.75Z" clip-rule="evenodd"/><path id="Oval_2" fill="#EA1A1A" fill-rule="evenodd" d="M25.4536 17.728C25.9196 17.728 26.2974 17.3922 26.2974 16.978C26.2974 16.5638 25.9196 16.228 25.4536 16.228C24.9876 16.228 24.6099 16.5638 24.6099 16.978C24.6099 17.3922 24.9876 17.728 25.4536 17.728Z" clip-rule="evenodd"/><path id="Oval_3" fill="#EA1A1A" fill-rule="evenodd" d="M18.7036 19.728C19.1696 19.728 19.5474 19.3922 19.5474 18.978C19.5474 18.5638 19.1696 18.228 18.7036 18.228C18.2376 18.228 17.8599 18.5638 17.8599 18.978C17.8599 19.3922 18.2376 19.728 18.7036 19.728Z" clip-rule="evenodd"/><path id="Oval_4" fill="#EA1A1A" fill-rule="evenodd" d="M14.2036 12.728C14.6696 12.728 15.0474 12.3922 15.0474 11.978C15.0474 11.5638 14.6696 11.228 14.2036 11.228C13.7376 11.228 13.3599 11.5638 13.3599 11.978C13.3599 12.3922 13.7376 12.728 14.2036 12.728Z" clip-rule="evenodd"/><path id="Oval_5" fill="#EA1A1A" fill-rule="evenodd" d="M20.9536 9.72803C21.4196 9.72803 21.7974 9.39224 21.7974 8.97803C21.7974 8.56381 21.4196 8.22803 20.9536 8.22803C20.4876 8.22803 20.1099 8.56381 20.1099 8.97803C20.1099 9.39224 20.4876 9.72803 20.9536 9.72803Z" clip-rule="evenodd"/><path id="Path 76_2" fill="#EA1A1A" d="M20.5889 9.05255L21.0834 9.29082C20.1467 10.8268 20.0806 12.2435 20.8738 13.5696L20.3772 13.8043C19.4915 12.3236 19.5658 10.7302 20.5889 9.05255Z"/><path id="Path 76_3" fill="#EA1A1A" d="M27.7671 11.686L27.6828 12.1804C25.4825 11.8839 23.8355 12.2965 22.7078 13.4098L22.2898 13.0753C23.555 11.8263 25.3921 11.366 27.7671 11.686Z"/><path id="Path 76_4" fill="#EA1A1A" d="M25.8952 17.3651L25.3438 17.4637C24.9047 15.5245 23.9052 14.2899 22.3426 13.7287L22.5533 13.2651C24.3064 13.8947 25.4213 15.2718 25.8952 17.3651Z"/><path id="Path 76_5" fill="#EA1A1A" d="M18.6447 19.1502L18.3518 18.7234C20.2518 17.6933 21.215 16.4362 21.2739 14.939L21.836 14.9565C21.77 16.6361 20.6955 18.0384 18.6447 19.1502Z"/></g></g></g></g></g></g><defs><filter id="filter0_dd_91_27765" width="42" height="30" x="0" y="0" color-interpolation-filters="sRGB" filterUnits="userSpaceOnUse"><feFlood flood-opacity="0" result="BackgroundImageFix"/><feColorMatrix in="SourceAlpha" result="hardAlpha" values="0 0 0 0 0 0 0 0 0 0 0 0 0 0 0 0 0 0 127 0"/><feOffset dy="1"/><feGaussianBlur stdDeviation="1"/><feColorMatrix values="0 0 0 0 0.0627451 0 0 0 0 0.0941176 0 0 0 0 0.156863 0 0 0 0.06 0"/><feBlend in2="BackgroundImageFix" result="effect1_dropShadow_91_27765"/><feColorMatrix in="SourceAlpha" result="hardAlpha" values="0 0 0 0 0 0 0 0 0 0 0 0 0 0 0 0 0 0 127 0"/><feOffset dy="1"/><feGaussianBlur stdDeviation="1.5"/><feColorMatrix values="0 0 0 0 0.0627451 0 0 0 0 0.0941176 0 0 0 0 0.156863 0 0 0 0.1 0"/><feBlend in2="effect1_dropShadow_91_27765" result="effect2_dropShadow_91_27765"/><feBlend in="SourceGraphic" in2="effect2_dropShadow_91_27765" result="shape"/></filter><clipPath id="clip0_91_27765"><rect width="36" height="24" x="3" y="2" fill="white" rx="2"/></clipPath></defs></svg>

<svg xmlns="http://www.w3.org/2000/svg" fill="none" aria-hidden="true" viewBox="0 0 42 30"><g filter="url(#a)"><g clip-path="url(#b)"><mask id="c" width="36" height="24" x="3" y="2" maskUnits="userSpaceOnUse" style="mask-type:alpha"><path fill="#fff" d="M3 2h36v24H3z"/></mask><g mask="url(#c)"><path fill="#EA1A1A" fill-rule="evenodd" d="M3 2v24h36V2H3Z" clip-rule="evenodd"/><mask id="d" width="36" height="24" x="3" y="2" maskUnits="userSpaceOnUse" style="mask-type:alpha"><path fill="#fff" fill-rule="evenodd" d="M3 2v24h36V2H3Z" clip-rule="evenodd"/></mask><g mask="url(#d)"><path fill="#fff" fill-rule="evenodd" d="M20.853 13.575s-6.513-5.163 1.26-8.172c0 0 2.26 2.217.564 4.705-.556.817-1.026 1.4-1.378 1.837-.723.898-.956 1.187-.446 1.63ZM11.24 9.868c-.447 7.525 7.66 4.654 7.66 4.654-.672.208-.86-.107-1.44-1.082-.282-.476-.66-1.11-1.232-1.917-1.746-2.461-4.988-1.655-4.988-1.655Zm12.278 3.96s8.36 2.224 2.754 7.876c0 0-3.104-1.157-2.754-4.05.115-.948.262-1.653.373-2.182.227-1.085.3-1.435-.373-1.645Zm-2.198 1.734s1.5 7.642-6.694 5.71c0 0-.224-2.984 2.844-3.999a33.125 33.125 0 0 1 2.363-.68c1.193-.304 1.578-.403 1.487-1.031Zm10.344-3.287c-5.125-6.002-9.23.844-9.23.844.363-.545.734-.412 1.885 0 .562.2 1.31.468 2.335.756 3.12.877 5.01-1.6 5.01-1.6Z" clip-rule="evenodd"/><path fill="#EA1A1A" d="m14.194 12.342.475-.268c1.042 1.458 2.394 2.175 4.082 2.175v.5c-1.888 0-3.416-.81-4.557-2.407Z"/><path fill="#EA1A1A" fill-rule="evenodd" d="M27.469 12.75c.466 0 .843-.336.843-.75s-.377-.75-.843-.75c-.466 0-.844.336-.844.75s.378.75.844.75Zm-2.015 4.978c.466 0 .843-.336.843-.75s-.377-.75-.843-.75c-.466 0-.844.336-.844.75s.378.75.844.75Zm-6.75 2c.466 0 .843-.336.843-.75s-.377-.75-.843-.75c-.466 0-.844.336-.844.75s.378.75.844.75Zm-4.5-7c.466 0 .843-.336.843-.75s-.377-.75-.843-.75c-.466 0-.844.336-.844.75s.378.75.844.75Zm6.75-3c.466 0 .843-.336.843-.75s-.377-.75-.843-.75c-.466 0-.844.336-.844.75s.378.75.844.75Z" clip-rule="evenodd"/><path fill="#EA1A1A" d="m20.589 9.053.494.238c-.936 1.536-1.002 2.952-.21 4.279l-.496.234c-.886-1.48-.811-3.074.212-4.751Zm7.178 2.633-.084.494c-2.2-.296-3.848.117-4.975 1.23l-.418-.335c1.265-1.249 3.102-1.709 5.477-1.389Z"/><path fill="#EA1A1A" d="m25.895 17.365-.551.099c-.44-1.94-1.439-3.174-3.001-3.735l.21-.464c1.753.63 2.868 2.007 3.342 4.1Zm-7.25 1.785-.293-.427c1.9-1.03 2.863-2.287 2.922-3.784l.562.018c-.066 1.68-1.14 3.081-3.191 4.193Z"/></g></g></g></g><defs><clipPath id="b"><rect width="36" height="24" x="3" y="2" fill="#fff" rx="2"/></clipPath><filter id="a" width="42" height="30" x="0" y="0" color-interpolation-filters="sRGB" filterUnits="userSpaceOnUse"><feFlood flood-opacity="0" result="BackgroundImageFix"/><feColorMatrix in="SourceAlpha" result="hardAlpha" values="0 0 0 0 0 0 0 0 0 0 0 0 0 0 0 0 0 0 127 0"/><feOffset dy="1"/><feGaussianBlur stdDeviation="1"/><feColorMatrix values="0 0 0 0 0.0627451 0 0 0 0 0.0941176 0 0 0 0 0.156863 0 0 0 0.06 0"/><feBlend in2="BackgroundImageFix" result="effect1_dropShadow_91_27765"/><feColorMatrix in="SourceAlpha" result="hardAlpha" values="0 0 0 0 0 0 0 0 0 0 0 0 0 0 0 0 0 0 127 0"/><feOffset dy="1"/><feGaussianBlur stdDeviation="1.5"/><feColorMatrix values="0 0 0 0 0.0627451 0 0 0 0 0.0941176 0 0 0 0 0.156863 0 0 0 0.1 0"/><feBlend in2="effect1_dropShadow_91_27765" result="effect2_dropShadow_91_27765"/><feBlend in="SourceGraphic" in2="effect2_dropShadow_91_27765" result="shape"/></filter></defs></svg>
